X:83
T: Jungfer Doertchen
N: Q0057V
O: Mitteleuropa, Deutschland (BRD) , Hessen
R: Ballade, Todesahnung, Tod, Selbstmord
M: 6/8
L: 1/16
K: G
D2G4B2 | d3ed2c4d2 | B4
D2G4B2 | d3ed2c4d2 | B4
G2G3ee2 | e2d2c2B3dde | d4
B2A3Bc2 | e3dc2d2d2c2 | B4
G2G3ee2 | e2d2c2B3dde | d4
B2A3Bc2 | e3dc2d2d2c2 | B4

@@@ Tune index: 959
